src/assets/icons/view.svg

<svg widh="100%" height="100%" viewBox="0 0 24 24" fill="current"
  xmlns="http://www.w3.org/2000/svg">
  <path fill-rule="evenodd" clip-rule="evenodd" d="M3.2026 12C3.30627 12.1266 3.43208 12.2763 3.57849 12.4436C4.05307 12.986 4.73951 13.7083 5.58609 14.4288C7.30141 15.8887 9.56734 17.25 12 17.25C14.4327 17.25 16.6986 15.8887 18.4139 14.4288C19.2605 13.7083 19.9469 12.986 20.4215 12.4436C20.5679 12.2763 20.6937 12.1266 20.7974 12C20.6937 11.8734 20.5679 11.7237 20.4215 11.5564C19.9469 11.014 19.2605 10.2917 18.4139 9.57115C16.6986 8.1113 14.4327 6.75 12 6.75C9.56734 6.75 7.30141 8.1113 5.58609 9.57115C4.73951 10.2917 4.05307 11.014 3.57849 11.5564C3.43208 11.7237 3.30627 11.8734 3.2026 12ZM21.75 12C22.3572 11.5598 22.3571 11.5596 22.3569 11.5594L22.3554 11.5573L22.352 11.5526L22.3404 11.5368C22.3305 11.5235 22.3165 11.5047 22.2984 11.4807C22.2621 11.4327 22.2095 11.364 22.1413 11.2775C22.0048 11.1047 21.8057 10.8604 21.5504 10.5686C21.0406 9.986 20.302 9.20835 19.3861 8.42885C17.5764 6.8887 14.9673 5.25 12 5.25C9.03266 5.25 6.42359 6.8887 4.61391 8.42885C3.69799 9.20835 2.95943 9.986 2.44963 10.5686C2.19429 10.8604 1.99518 11.1047 1.85875 11.2775C1.7905 11.364 1.73785 11.4327 1.70161 11.4807C1.68349 11.5047 1.66946 11.5235 1.65962 11.5368L1.64803 11.5526L1.64461 11.5573L1.6435 11.5588C1.64334 11.559 1.64279 11.5598 2.25 12L1.64279 11.5598C1.4524 11.8224 1.4524 12.1776 1.64279 12.4402L2.25 12C1.64279 12.4402 1.64263 12.44 1.64279 12.4402L1.64461 12.4427L1.64803 12.4474L1.65962 12.4632C1.66946 12.4765 1.68349 12.4953 1.70161 12.5193C1.73785 12.5673 1.7905 12.636 1.85875 12.7225C1.99518 12.8953 2.19429 13.1396 2.44963 13.4314C2.95943 14.014 3.69799 14.7917 4.61391 15.5712C6.42359 17.1113 9.03266 18.75 12 18.75C14.9673 18.75 17.5764 17.1113 19.3861 15.5712C20.302 14.7917 21.0406 14.014 21.5504 13.4314C21.8057 13.1396 22.0048 12.8953 22.1413 12.7225C22.2095 12.636 22.2621 12.5673 22.2984 12.5193C22.3165 12.4953 22.3305 12.4765 22.3404 12.4632L22.352 12.4474L22.3554 12.4427L22.3565 12.4412C22.3567 12.441 22.3572 12.4402 21.75 12ZM21.75 12L22.3572 12.4402C22.5476 12.1776 22.5473 11.822 22.3569 11.5594L21.75 12Z"/>
  <path fill-rule="evenodd" clip-rule="evenodd" d="M8.25 12C8.25 9.92896 9.92896 8.25 12 8.25C14.071 8.25 15.75 9.92896 15.75 12C15.75 14.071 14.071 15.75 12 15.75C9.92896 15.75 8.25 14.071 8.25 12ZM12 9.75C10.7574 9.75 9.75 10.7574 9.75 12C9.75 13.2426 10.7574 14.25 12 14.25C13.2426 14.25 14.25 13.2426 14.25 12C14.25 10.7574 13.2426 9.75 12 9.75Z"/>
</svg>

<svg xmlns="http://www.w3.org/2000/svg" fill="currentColor" viewBox="0 0 24 24">
  <path fill-rule="evenodd" d="M3.203 12a19.509 19.509 0 0 0 2.383 2.429C7.301 15.889 9.567 17.25 12 17.25s4.699-1.361 6.414-2.821A19.509 19.509 0 0 0 20.797 12a19.513 19.513 0 0 0-2.383-2.429C16.699 8.111 14.433 6.75 12 6.75S7.301 8.111 5.586 9.571A19.513 19.513 0 0 0 3.203 12Zm18.547 0 .607-.44-.002-.003-.003-.004-.012-.016a10.578 10.578 0 0 0-.199-.26 21.014 21.014 0 0 0-2.755-2.849C17.576 6.889 14.967 5.25 12 5.25c-2.967 0-5.576 1.639-7.386 3.179a21.012 21.012 0 0 0-2.755 2.848 12.165 12.165 0 0 0-.2.26l-.011.016-.003.004-.002.002.607.441-.607-.44a.75.75 0 0 0 0 .88L2.25 12l-.607.44.002.003.003.004.012.016a7.38 7.38 0 0 0 .199.26 21.011 21.011 0 0 0 2.755 2.849c1.81 1.54 4.419 3.178 7.386 3.178 2.967 0 5.576-1.639 7.386-3.179a21.014 21.014 0 0 0 2.755-2.848 12.745 12.745 0 0 0 .2-.26l.011-.016.003-.004.002-.002L21.75 12Zm0 0 .607.44a.75.75 0 0 0 0-.88l-.607.44Z" clip-rule="evenodd"/>
  <path fill-rule="evenodd" d="M8.25 12a3.75 3.75 0 1 1 7.5 0 3.75 3.75 0 0 1-7.5 0ZM12 9.75a2.25 2.25 0 1 0 0 4.5 2.25 2.25 0 0 0 0-4.5Z" clip-rule="evenodd"/>
</svg>
